note-edit-outline.svg

<svg fill="currentColor" viewBox="0 0 24 24"><path d="m18.13 12 1.26-1.26c.44-.44 1-.68 1.61-.74V9l-6-6H5c-1.11 0-2 .89-2 2v14a2 2 0 0 0 2 2h6v-1.87l.13-.13H5V5h7v7zM14 4.5l5.5 5.5H14zm5.13 9.33 2.04 2.04L15.04 22H13v-2.04zm3.72.36-.98.98-2.04-2.04.98-.98c.19-.2.52-.2.72 0l1.32 1.32c.2.2.2.53 0 .72"/></svg>

<svg  viewBox="0 0 24 24" fill="currentColor"><path  d="M18.13 12L19.39 10.74C19.83 10.3 20.39 10.06 21 10V9L15 3H5C3.89 3 3 3.89 3 5V19C3 20.1 3.89 21 5 21H11V19.13L11.13 19H5V5H12V12H18.13M14 4.5L19.5 10H14V4.5M19.13 13.83L21.17 15.87L15.04 22H13V19.96L19.13 13.83M22.85 14.19L21.87 15.17L19.83 13.13L20.81 12.15C21 11.95 21.33 11.95 21.53 12.15L22.85 13.47C23.05 13.67 23.05 14 22.85 14.19Z"/></svg>
